assets/images/integrationicons/bill-com-icon-square.svg

<svg viewBox="0 0 150 150" fill="none" xmlns="http://www.w3.org/2000/svg">
<rect width="100%" height="100%" fill="#FF5A0B"/>
<path d="M43.8842 62.0263V47.4133L58.1667 58.4602C63.1128 62.3361 64.051 67.9778 63.9351 67.8367C60.7149 63.8379 56.4143 62.083 53.4537 62.036L43.8842 62.0263Z" fill="white" fill-opacity="0.6"/>
<path d="M82.3672 65.18H71.6802V103.83H82.3672V65.18Z" fill="white"/>
<path d="M101.103 46.9333H90.4156V103.83H101.103V46.9333Z" fill="white"/>
<path d="M119.831 46.9333H109.144V103.83H119.831V46.9333Z" fill="white"/>
<path d="M53.239 90.4776C53.239 92.1993 51.7447 93.6124 50.0556 93.6124H40.934V75.2161H50.0556C51.7553 75.2161 53.239 76.6128 53.239 78.3508V90.4776ZM41.0052 65.1924V46.9567H30.3723V103.824H52.6236C58.8834 103.824 63.9548 98.5019 63.9548 91.9324V77.0842C63.9548 70.5147 58.8834 65.1924 52.6236 65.1924H41.0052Z" fill="white"/>
<path d="M76.9582 59.6826C80.814 59.6826 83.9397 56.5584 83.9397 52.7046C83.9397 48.8508 80.814 45.7267 76.9582 45.7267C73.1025 45.7267 69.9767 48.8508 69.9767 52.7046C69.9767 56.5584 73.1025 59.6826 76.9582 59.6826Z" fill="white"/>
</svg>

<svg xmlns="http://www.w3.org/2000/svg" fill="none" viewBox="0 0 150 150"><rect width="100%" height="100%" fill="#ff5a0b"/><path fill="#fff" fill-opacity=".6" d="M43.884 62.026V47.413L58.167 58.46c4.946 3.876 5.884 9.518 5.768 9.377-3.22-4-7.52-5.754-10.481-5.801z"/><path fill="#fff" d="M82.367 65.18H71.68v38.65h10.687zm18.736-18.247H90.416v56.897h10.687zm18.728 0h-10.687v56.897h10.687zM53.239 90.478c0 1.721-1.494 3.134-3.183 3.134h-9.122V75.216h9.122c1.7 0 3.183 1.397 3.183 3.135zM41.005 65.192V46.957H30.372v56.867h22.252c6.26 0 11.33-5.322 11.33-11.892V77.084c0-6.57-5.07-11.892-11.33-11.892zm35.953-5.509a6.98 6.98 0 0 0 6.982-6.978 6.98 6.98 0 0 0-6.982-6.978 6.98 6.98 0 0 0-6.981 6.978 6.98 6.98 0 0 0 6.981 6.978"/></svg>
